app/content/themes/irontheme/images/general/whatsapp.svg

<svg width="30" height="30" viewBox="0 0 30 30" fill="none" xmlns="http://www.w3.org/2000/svg">
<g clip-path="url(#clip0)">
<path d="M14.2726 0.0173493C6.34958 0.394596 0.0972496 6.9929 0.121285 14.9248C0.128603 17.3407 0.711836 19.621 1.74069 21.6358L0.161033 29.3036C0.0755819 29.7184 0.449672 30.0816 0.861716 29.984L8.37529 28.2039C10.3057 29.1654 12.4739 29.7208 14.7685 29.7558C22.8666 29.8795 29.6189 23.4495 29.8713 15.3545C30.1419 6.67714 22.9802 -0.397349 14.2726 0.0173493ZM23.2379 23.1167C21.0374 25.3171 18.1118 26.5289 15 26.5289C13.1779 26.5289 11.4334 26.1201 9.8149 25.3139L8.76854 24.7926L4.16194 25.8841L5.1316 21.177L4.6161 20.1675C3.77587 18.5219 3.34984 16.7425 3.34984 14.8788C3.34984 11.7669 4.56164 8.84132 6.76206 6.64083C8.94281 4.46008 11.9162 3.22854 15.0002 3.22854C18.112 3.22861 21.0375 4.44042 23.2379 6.64076C25.4383 8.84117 26.6502 11.7667 26.6502 14.8786C26.6502 17.9627 25.4186 20.936 23.2379 23.1167Z" fill="#00E676"/>
<path d="M22.2209 18.1056L19.3389 17.2781C18.96 17.1693 18.552 17.2768 18.2759 17.5581L17.5711 18.2762C17.2739 18.5789 16.823 18.6762 16.4297 18.5171C15.0663 17.9654 12.1985 15.4155 11.4661 14.14C11.2548 13.7721 11.2897 13.3121 11.5492 12.9764L12.1645 12.1804C12.4055 11.8685 12.4564 11.4496 12.297 11.0891L11.0845 8.34672C10.794 7.68988 9.95465 7.49867 9.40629 7.96244C8.60193 8.64275 7.64755 9.67655 7.53154 10.8219C7.32698 12.8411 8.19297 15.3865 11.4677 18.443C15.251 21.974 18.2806 22.4405 20.2531 21.9627C21.3719 21.6917 22.266 20.6053 22.8303 19.7158C23.215 19.1093 22.9113 18.3039 22.2209 18.1056Z" fill="#00E676"/>
</g>
<defs>
<clipPath id="clip0">
<rect width="30" height="30" fill="white"/>
</clipPath>
</defs>
</svg>

<svg width="30" height="30" viewBox="0 0 30 30" fill="none" xmlns="http://www.w3.org/2000/svg"><g clip-path="url(#clip0)" fill="#00E676"><path d="M14.273.017C6.35.395.097 6.993.12 14.925c.008 2.416.59 4.696 1.62 6.71l-1.58 7.67a.58.58 0 00.7.68l7.514-1.78a14.81 14.81 0 006.393 1.552c8.099.123 14.85-6.306 15.103-14.402C30.14 6.678 22.98-.396 14.272.018zm8.965 23.1A11.574 11.574 0 0115 26.529c-1.822 0-3.567-.409-5.185-1.215l-1.046-.521-4.607 1.091.97-4.707-.516-1.01A11.52 11.52 0 013.35 14.88c0-3.112 1.212-6.038 3.412-8.238A11.671 11.671 0 0115 3.229a11.57 11.57 0 018.238 3.412c2.2 2.2 3.412 5.126 3.412 8.238a11.67 11.67 0 01-3.412 8.238z"/><path d="M22.22 18.106l-2.881-.828a1.074 1.074 0 00-1.063.28l-.705.718a1.05 1.05 0 01-1.141.241c-1.364-.552-4.232-3.101-4.964-4.377a1.05 1.05 0 01.083-1.164l.616-.796c.24-.312.291-.73.132-1.09l-1.213-2.743a1.075 1.075 0 00-1.678-.385c-.804.68-1.758 1.715-1.874 2.86-.205 2.02.661 4.565 3.936 7.621 3.783 3.531 6.813 3.997 8.785 3.52 1.119-.271 2.013-1.358 2.577-2.247a1.075 1.075 0 00-.61-1.61z"/></g><defs><clipPath id="clip0"><path fill="#fff" d="M0 0h30v30H0z"/></clipPath></defs></svg>
